packages/core/src/svgs/tokens/mono/GET.svg

<svg width="24" height="24" viewBox="0 0 24 24" fill="none" xmlns="http://www.w3.org/2000/svg">
<path d="M12.625 10.75V8.87497L9.49993 12L12.625 15.125V13.25H18.2906L12.2856 19.0574L5.02686 12L12.2849 4.94249L16.1305 8.68123C16.3656 8.90997 16.6844 9.0381 17.0169 9.0381C17.3494 9.0381 17.668 8.90997 17.9037 8.68186C18.1386 8.45248 18.2706 8.14248 18.2706 7.81936C18.2706 7.49624 18.1386 7.18623 17.9037 6.95749L13.1719 2.3575C12.934 2.1275 12.6158 1.99927 12.2849 2C11.9524 2 11.6338 2.12813 11.3987 2.35687L2.3675 11.1381C2.25158 11.2499 2.15931 11.3838 2.09618 11.532C2.03305 11.6801 2.00034 11.8395 2 12.0005C2 12.3231 2.13186 12.6332 2.36687 12.8618L11.3987 21.643C11.6338 21.8718 11.9531 22 12.2849 22C12.6174 22 12.9368 21.8718 13.1719 21.643L21.4362 13.6075C21.7794 13.2818 22 12.8631 22 12.3731C22 11.8824 21.7794 11.4637 21.4261 11.1282C21.1918 10.9056 20.8774 10.75 20.55 10.75H12.625Z" fill="white"/>
</svg>

<svg xmlns="http://www.w3.org/2000/svg" width="24" height="24" fill="none" viewBox="0 0 24 24">
    <path fill="#fff" d="M12.625 10.75V8.875L9.5 12l3.125 3.125V13.25h5.666l-6.005 5.807L5.026 12l7.259-7.058 3.846 3.74c.235.228.553.356.886.356s.651-.128.887-.356c.235-.23.367-.54.367-.863s-.132-.633-.367-.862l-4.732-4.6A1.27 1.27 0 0 0 12.285 2a1.27 1.27 0 0 0-.886.357l-9.031 8.781a1.2 1.2 0 0 0-.368.863c0 .322.132.632.367.86l9.032 8.782c.235.229.554.357.886.357s.652-.128.887-.357l8.264-8.036c.343-.325.564-.744.564-1.234s-.22-.91-.574-1.245c-.234-.222-.549-.378-.876-.378z"/>
</svg>
